app/img/publish/white.svg

<?xml version="1.0" encoding="UTF-8" standalone="no"?>
<svg width="18px" height="18px" viewBox="0 0 18 18" version="1.1" xmlns="http://www.w3.org/2000/svg" xmlns:xlink="http://www.w3.org/1999/xlink">
    <!-- Generator: Sketch 48.2 (47327) - http://www.bohemiancoding.com/sketch -->
    <title>Icn Special / Publish / White</title>
    <desc>Created with Sketch.</desc>
    <defs>
        <path d="M14.003,5.4516 L10.4346068,9.01999322 C10.0440825,9.41051751 9.41091751,9.41051751 9.02039322,9.01999322 L8.97953973,8.97927383 C8.97951738,8.97925148 8.97949503,8.97922913 8.97947268,8.97920677 C8.58898542,8.58864545 8.58904546,7.95548047 8.97960679,7.56499322 L12.5473814,3.998 L10.999,3.998 C10.4472675,3.998 10,3.55073247 10,2.999 C10,2.44726753 10.4472675,2 10.999,2 L15,2 C15.5522847,2 16,2.44771525 16,3 L16,7.0015 C16,7.55295632 15.5529563,8 15.0015,8 C14.4500437,8 14.003,7.55295632 14.003,7.0015 L14.003,5.4516 Z M14,14 L14,10.992 C14,10.4397153 14.4477153,9.992 15,9.992 C15.5522847,9.992 16,10.4397153 16,10.992 L16,13.995 C16,15.103 15.103,16 13.995,16 L3.999,16 C2.895,16 2,15.105 2,14.002 L2,4 C2,2.896 2.896,2 4,2 L7,2 C7.55228475,2 8,2.44771525 8,3 C8,3.55228475 7.55228475,4 7,4 L4,4 L4,14 L14,14 Z" id="path-1"></path>
    </defs>
    <g id="Symbols" stroke="none" stroke-width="1" fill="none" fill-rule="evenodd">
        <g id="Icn-Special-/-Publish-/-White">
            <mask id="mask-2" fill="white">
                <use xlink:href="#path-1"></use>
            </mask>
            <use id="glyph" fill="#FFFFFF" xlink:href="#path-1"></use>
        </g>
    </g>
</svg>

<svg width="18" height="18" xmlns="http://www.w3.org/2000/svg" xmlns:xlink="http://www.w3.org/1999/xlink"><defs><path d="M14.003 5.452L10.435 9.02a1 1 0 0 1-1.415 0l-.04-.04a1 1 0 0 1 0-1.415l3.567-3.567H11a.999.999 0 1 1 0-1.998H15a1 1 0 0 1 1 1v4.002a.999.999 0 0 1-1.997 0v-1.55zM14 14v-3.008a1 1 0 0 1 2 0v3.003A2.004 2.004 0 0 1 13.995 16H3.999A1.999 1.999 0 0 1 2 14.002V4a2 2 0 0 1 2-2h3a1 1 0 1 1 0 2H4v10h10z" id="a"/></defs><use fill="#FFF" xlink:href="#a" fill-rule="evenodd"/></svg>
